X:623
T:Reel 623
M:4/4
K:Dmaj
L:1/8
c|d2fe dcBA|Beed edBc|defe dcBA|BFGF EGFE|DEFA d2cd|BABd cAFA|D2FG FAAd| (3Bcd ce dBA|B|ADFD ADFD|ADFA GEEG|ADFD ADFD|GBdA FDDA|ADFD BDFD|GEBE GEBc|dBcA BGAF|GBAG FDD|
